; generated by Slic3r 1.2.9 on 2016-07-30 at 14:39:51

; external perimeters extrusion width = 0.30mm
; perimeters extrusion width = 0.40mm
; infill extrusion width = 0.40mm
; solid infill extrusion width = 0.40mm
; top infill extrusion width = 0.40mm

M107
M190 S70 ; set bed temperature
M104 S205 ; set temperature
G28 ; home all axes
G1 Z5 F5000 ; lift nozzle

M109 S205 ; wait for temperature to be reached
G21 ; set units to millimeters
G90 ; use absolute coordinates
M82 ; use absolute distances for extrusion
G92 E0
G1 Z0.300 F7800.000
G1 E-2.00000 F2400.00000
G92 E0
G1 X63.004 Y63.787 F7800.000
G1 E2.00000 F2400.00000
G1 X64.753 Y62.328 E2.15217 F1800.000
G1 X68.000 Y61.464 E2.37660
G1 X132.000 Y61.464 E6.65215
G1 X134.243 Y61.861 E6.80432
G1 X136.213 Y63.004 E6.95649 F1800.000
G1 X137.672 Y64.753 E7.10866
G1 X138.536 Y68.000 E7.33309
G1 X138.536 Y132.000 E11.60864
G1 X138.139 Y134.243 E11.76081
G1 X136.996 Y136.213 E11.91298
G1 X135.247 Y137.672 E12.06515
G1 X132.000 Y138.536 E12.28958
G1 X68.000 Y138.536 E16.56513
G1 X65.757 Y138.139 E16.71730
G1 X63.787 Y136.996 E16.86947
G1 X62.328 Y135.247 E17.02164
G1 X61.464 Y132.000 E17.24607
G1 X61.464 Y68.000 E21.52161
G1 X61.861 Y65.757 E21.67379
G1 X62.981 Y63.825 E21.82295
G1 E19.82295 F2400.00000
G92 E0
G1 X129.836 Y129.836 F7800.000
G1 E2.00000 F2400.00000
G1 X70.164 Y129.836 E5.98636 F1800.000
G1 X70.164 Y70.164 E9.97272
G1 X129.836 Y70.164 E13.95908
G1 X129.836 Y129.791 E17.94244
G1 X129.300 Y129.300 F7800.000
G1 X70.700 Y129.300 E21.85724 F1800.000
G1 X70.700 Y70.700 E25.77203
G1 X129.300 Y70.700 E29.68683
G1 X129.300 Y129.255 E33.59862
G1 X129.300 Y129.600 F7800.000
G1 X131.164 Y131.164 F7800.000
G1 X68.836 Y131.164 E37.76252 F1800.000
G1 X68.836 Y68.836 E41.92642
G1 X131.164 Y68.836 E46.09032
G1 X131.164 Y131.119 E50.25121
G1 X131.700 Y131.700 F7800.000
G1 X68.300 Y131.700 E54.48667 F1800.000
G1 X68.300 Y68.300 E58.72214
G1 X131.700 Y68.300 E62.95760
G1 X131.700 Y131.655 E67.19005
G1 X131.440 Y131.550 F7800.000
G1 X130.432 Y130.432 F7800.000
G1 X130.103 Y130.500 E67.23758 F1800.000
G1 X69.897 Y130.500 E75.76532
G1 X69.568 Y130.432 E75.81284
G1 X69.500 Y130.103 E75.86036
G1 X69.500 Y69.897 E84.38810
G1 X69.568 Y69.568 E84.43562
G1 X69.897 Y69.500 E84.48314
G1 X130.103 Y69.500 E93.01089
G1 X130.432 Y69.568 E93.05841
G1 X130.500 Y69.897 E93.10593
G1 X130.500 Y130.103 E101.63367
G1 X130.441 Y130.388 E101.67482
M104 S200 ; set temperature
M140 S65 ; wait for bed temperature to be reached
G1 Z0.500 F7800.000
G1 X130.162 Y130.162 F7800.000
G1 X69.838 Y130.162 E103.44761 F3600.000
G1 X69.838 Y69.838 E105.22040
G1 X130.162 Y69.838 E106.99320
G1 X130.162 Y130.117 E108.76467
G1 X129.809 Y129.809 F7800.000
G1 X70.191 Y129.809 E110.51669 F3600.000
G1 X70.191 Y70.191 E112.26871
G1 X129.809 Y70.191 E114.02073
G1 X129.809 Y129.764 E115.77143
G1 X129.455 Y129.455 F7800.000
G1 X70.545 Y129.455 E117.50268 F3600.000
G1 X70.545 Y70.545 E119.23392
G1 X129.455 Y70.545 E120.96517
G1 X129.455 Y129.410 E122.69510
G1 X129.150 Y129.150 F7800.000
G1 X70.850 Y129.150 E123.94133 F1800.000
G1 X70.850 Y70.850 E125.18757
G1 X129.150 Y70.850 E126.43380
G1 X129.150 Y129.105 E127.67908
G1 X129.150 Y129.450 F7800.000
G1 X130.838 Y130.838 F7800.000
G1 X69.162 Y130.838 E129.49159 F3600.000
G1 X69.162 Y69.162 E131.30410
G1 X130.838 Y69.162 E133.11662
G1 X130.838 Y130.793 E134.92781
G1 X131.191 Y131.191 F7800.000
G1 X68.809 Y131.191 E136.76109 F3600.000
G1 X68.809 Y68.809 E138.59438
G1 X131.191 Y68.809 E140.42766
G1 X131.191 Y131.146 E142.25963
G1 X131.545 Y131.545 F7800.000
G1 X68.455 Y131.545 E144.11368 F3600.000
G1 X68.455 Y68.455 E145.96774
G1 X131.545 Y68.455 E147.82180
G1 X131.545 Y131.500 E149.67454
G1 X131.850 Y131.850 F7800.000
G1 X68.150 Y131.850 E151.03620 F1800.000
G1 X68.150 Y68.150 E152.39787
G1 X131.850 Y68.150 E153.75954
G1 X131.850 Y131.805 E155.12025
G1 X131.590 Y131.700 F7800.000
G1 X130.472 Y130.472 F7800.000
G1 X130.339 Y130.500 E155.12875 F1200.000
G1 X69.661 Y130.500 E158.91165
G1 X69.528 Y130.472 E158.92015
G1 X69.500 Y130.339 E158.92865
G1 X69.500 Y69.661 E162.71156
G1 X69.528 Y69.528 E162.72006
G1 X69.661 Y69.500 E162.72856
G1 X130.339 Y69.500 E166.51146
G1 X130.472 Y69.528 E166.51996
G1 X130.500 Y69.661 E166.52846
G1 X130.500 Y130.339 E170.31137
G1 X130.481 Y130.428 E170.31706
G1 Z0.700 F7800.000
G1 X130.162 Y130.162 F7800.000
G1 X69.838 Y130.162 E172.08986 F3600.000
G1 X69.838 Y69.838 E173.86265
G1 X130.162 Y69.838 E175.63544
G1 X130.162 Y130.117 E177.40691
G1 X129.809 Y129.809 F7800.000
G1 X70.191 Y129.809 E179.15893 F3600.000
G1 X70.191 Y70.191 E180.91095
G1 X129.809 Y70.191 E182.66298
G1 X129.809 Y129.764 E184.41367
G1 X129.455 Y129.455 F7800.000
G1 X70.545 Y129.455 E186.14492 F3600.000
G1 X70.545 Y70.545 E187.87617
G1 X129.455 Y70.545 E189.60742
G1 X129.455 Y129.410 E191.33734
G1 X129.150 Y129.150 F7800.000
G1 X70.850 Y129.150 E192.58358 F1800.000
G1 X70.850 Y70.850 E193.82981
G1 X129.150 Y70.850 E195.07605
G1 X129.150 Y129.105 E196.32132
G1 X129.150 Y129.450 F7800.000
G1 X130.838 Y130.838 F7800.000
G1 X69.162 Y130.838 E198.13384 F3600.000
G1 X69.162 Y69.162 E199.94635
G1 X130.838 Y69.162 E201.75886
G1 X130.838 Y130.793 E203.57005
G1 X131.191 Y131.191 F7800.000
G1 X68.809 Y131.191 E205.40334 F3600.000
G1 X68.809 Y68.809 E207.23662
G1 X131.191 Y68.809 E209.06991
G1 X131.191 Y131.146 E210.90187
G1 X131.545 Y131.545 F7800.000
G1 X68.455 Y131.545 E212.75593 F3600.000
G1 X68.455 Y68.455 E214.60999
G1 X131.545 Y68.455 E216.46405
G1 X131.545 Y131.500 E218.31678
G1 X131.850 Y131.850 F7800.000
G1 X68.150 Y131.850 E219.67845 F1800.000
G1 X68.150 Y68.150 E221.04012
G1 X131.850 Y68.150 E222.40179
G1 X131.850 Y131.805 E223.76249
G1 X131.590 Y131.700 F7800.000
G1 X130.472 Y130.472 F7800.000
G1 X130.339 Y130.500 E223.77099 F1200.000
G1 X69.661 Y130.500 E227.55390
G1 X69.528 Y130.472 E227.56240
G1 X69.500 Y130.339 E227.57090
G1 X69.500 Y69.661 E231.35380
G1 X69.528 Y69.528 E231.36230
G1 X69.661 Y69.500 E231.37080
G1 X130.339 Y69.500 E235.15371
G1 X130.472 Y69.528 E235.16221
G1 X130.500 Y69.661 E235.17071
G1 X130.500 Y130.339 E238.95361
G1 X130.481 Y130.428 E238.95931
M106 S109.65
G1 Z0.900 F7800.000
G1 X130.162 Y130.162 F7800.000
G1 X69.838 Y130.162 E240.73210 F3600.000
G1 X69.838 Y69.838 E242.50489
G1 X130.162 Y69.838 E244.27769
G1 X130.162 Y130.117 E246.04916
G1 X129.809 Y129.809 F7800.000
G1 X70.191 Y129.809 E247.80118 F3600.000
G1 X70.191 Y70.191 E249.55320
G1 X129.809 Y70.191 E251.30522
G1 X129.809 Y129.764 E253.05592
G1 X129.455 Y129.455 F7800.000
G1 X70.545 Y129.455 E254.78717 F3600.000
G1 X70.545 Y70.545 E256.51841
G1 X129.455 Y70.545 E258.24966
G1 X129.455 Y129.410 E259.97959
G1 X129.150 Y129.150 F7800.000
G1 X70.850 Y129.150 E261.22582 F1800.000
G1 X70.850 Y70.850 E262.47206
G1 X129.150 Y70.850 E263.71829
G1 X129.150 Y129.105 E264.96357
G1 X129.150 Y129.450 F7800.000
G1 X130.838 Y130.838 F7800.000
G1 X69.162 Y130.838 E266.77608 F3600.000
G1 X69.162 Y69.162 E268.58859
G1 X130.838 Y69.162 E270.40111
G1 X130.838 Y130.793 E272.21230
G1 X131.191 Y131.191 F7800.000
G1 X68.809 Y131.191 E274.04558 F3600.000
G1 X68.809 Y68.809 E275.87887
G1 X131.191 Y68.809 E277.71215
G1 X131.191 Y131.146 E279.54412
G1 X131.545 Y131.545 F7800.000
G1 X68.455 Y131.545 E281.39817 F3600.000
G1 X68.455 Y68.455 E283.25223
G1 X131.545 Y68.455 E285.10629
G1 X131.545 Y131.500 E286.95903
G1 X131.850 Y131.850 F7800.000
G1 X68.150 Y131.850 E288.32070 F1800.000
G1 X68.150 Y68.150 E289.68236
G1 X131.850 Y68.150 E291.04403
G1 X131.850 Y131.805 E292.40474
G1 X131.590 Y131.700 F7800.000
G1 X130.472 Y130.472 F7800.000
G1 X130.339 Y130.500 E292.41324 F1200.000
G1 X69.661 Y130.500 E296.19614
G1 X69.528 Y130.472 E296.20464
G1 X69.500 Y130.339 E296.21314
G1 X69.500 Y69.661 E299.99605
G1 X69.528 Y69.528 E300.00455
G1 X69.661 Y69.500 E300.01305
G1 X130.339 Y69.500 E303.79595
G1 X130.472 Y69.528 E303.80445
G1 X130.500 Y69.661 E303.81295
G1 X130.500 Y130.339 E307.59586
G1 X130.481 Y130.428 E307.60155
G1 Z1.100 F7800.000
G1 X130.162 Y130.162 F7800.000
G1 X69.838 Y130.162 E309.37435 F3600.000
G1 X69.838 Y69.838 E311.14714
G1 X130.162 Y69.838 E312.91993
G1 X130.162 Y130.117 E314.69140
G1 X129.809 Y129.809 F7800.000
G1 X70.191 Y129.809 E316.44343 F3600.000
G1 X70.191 Y70.191 E318.19545
G1 X129.809 Y70.191 E319.94747
G1 X129.809 Y129.764 E321.69816
G1 X129.455 Y129.455 F7800.000
G1 X70.545 Y129.455 E323.42941 F3600.000
G1 X70.545 Y70.545 E325.16066
G1 X129.455 Y70.545 E326.89191
G1 X129.455 Y129.410 E328.62183
G1 X129.150 Y129.150 F7800.000
G1 X70.850 Y129.150 E329.86807 F1800.000
G1 X70.850 Y70.850 E331.11430
G1 X129.150 Y70.850 E332.36054
G1 X129.150 Y129.105 E333.60581
G1 X129.150 Y129.450 F7800.000
G1 E331.60581 F2400.00000
G92 E0
G1 X130.838 Y130.838 F7800.000
G1 E2.00000 F2400.00000
G1 X69.162 Y130.838 E3.81251 F3600.000
G1 X69.162 Y69.162 E5.62503
G1 X130.838 Y69.162 E7.43754
G1 X130.838 Y130.793 E9.24873
G1 X131.191 Y131.191 F7800.000
G1 X68.809 Y131.191 E11.08201 F3600.000
G1 X68.809 Y68.809 E12.91530
G1 X131.191 Y68.809 E14.74858
G1 X131.191 Y131.146 E16.58055
G1 X131.545 Y131.545 F7800.000
G1 X68.455 Y131.545 E18.43461 F3600.000
G1 X68.455 Y68.455 E20.28867
G1 X131.545 Y68.455 E22.14272
G1 X131.545 Y131.500 E23.99546
G1 X131.850 Y131.850 F7800.000
G1 X68.150 Y131.850 E25.35713 F1800.000
G1 X68.150 Y68.150 E26.71880
G1 X131.850 Y68.150 E28.08046
G1 X131.850 Y131.805 E29.44117
G1 X131.590 Y131.700 F7800.000
G1 X130.472 Y130.472 F7800.000
G1 X130.339 Y130.500 E29.44967 F1200.000
G1 X69.661 Y130.500 E33.23257
G1 X69.528 Y130.472 E33.24107
G1 X69.500 Y130.339 E33.24958
G1 X69.500 Y69.661 E37.03248
G1 X69.528 Y69.528 E37.04098
G1 X69.661 Y69.500 E37.04948
G1 X130.339 Y69.500 E40.83238
G1 X130.472 Y69.528 E40.84089
G1 X130.500 Y69.661 E40.84939
G1 X130.500 Y130.339 E44.63229
G1 X130.481 Y130.428 E44.63799
M106 S96.9
G1 Z1.300 F7800.000
G1 X131.150 Y131.150 F7800.000
G1 X68.850 Y131.150 E45.96973 F1800.000
G1 X68.850 Y68.850 E47.30147
G1 X131.150 Y68.850 E48.63321
G1 X131.150 Y131.105 E49.96399
G1 X131.150 Y131.450 F7800.000
G1 X131.850 Y131.850 F7800.000
G1 X68.150 Y131.850 E51.32565 F1800.000
G1 X68.150 Y68.150 E52.68732
G1 X131.850 Y68.150 E54.04899
G1 X131.850 Y131.805 E55.40970
G1 X131.590 Y131.700 F7800.000
G1 E53.40970 F2400.00000
G92 E0
G1 X132.000 Y132.000 F7800.000
G1 X132.000 Y132.000 F7800.000
G1 X129.150 Y129.150 F7800.000
G1 E2.00000 F2400.00000
G1 X70.850 Y129.150 E3.24624 F1800.000
G1 X70.850 Y70.850 E4.49247
G1 X129.150 Y70.850 E5.73871
G1 X129.150 Y129.105 E6.98398
G1 X129.150 Y129.450 F7800.000
G1 X129.850 Y129.850 F7800.000
G1 X70.150 Y129.850 E8.26014 F1800.000
G1 X70.150 Y70.150 E9.53631
G1 X129.850 Y70.150 E10.81247
G1 X129.850 Y129.805 E12.08767
G1 X129.590 Y129.700 F7800.000
G1 X129.466 Y129.466 F7800.000
G1 X129.303 Y129.500 E12.09808 F1200.000
G1 X70.697 Y129.500 E15.75178
G1 X70.534 Y129.466 E15.76219
G1 X70.500 Y129.303 E15.77260
G1 X70.500 Y70.697 E19.42630
G1 X70.534 Y70.534 E19.43671
G1 X70.697 Y70.500 E19.44712
G1 X129.303 Y70.500 E23.10083
G1 X129.466 Y70.534 E23.11124
G1 X129.500 Y70.697 E23.12165
G1 X129.500 Y129.303 E26.77535
G1 X129.475 Y129.422 E26.78295
G1 E24.78295 F2400.00000
G92 E0
G1 X132.000 Y132.000 F7800.000
G1 X132.000 Y132.000 F7800.000
G1 X131.466 Y131.466 F7800.000
G1 E2.00000 F2400.00000
G1 X131.303 Y131.500 E2.01041 F1200.000
G1 X68.697 Y131.500 E5.91349
G1 X68.534 Y131.466 E5.92390
G1 X68.500 Y131.303 E5.93431
G1 X68.500 Y68.697 E9.83739
G1 X68.534 Y68.534 E9.84780
G1 X68.697 Y68.500 E9.85821
G1 X131.303 Y68.500 E13.76129
G1 X131.466 Y68.534 E13.77170
G1 X131.500 Y68.697 E13.78211
G1 X131.500 Y131.303 E17.68519
G1 X131.475 Y131.422 E17.69279
G1 Z1.500 F7800.000
G1 X131.150 Y131.150 F7800.000
G1 X68.850 Y131.150 E19.02453 F1800.000
G1 X68.850 Y68.850 E20.35627
G1 X131.150 Y68.850 E21.68801
G1 X131.150 Y131.105 E23.01879
G1 X131.150 Y131.450 F7800.000
G1 X131.850 Y131.850 F7800.000
G1 X68.150 Y131.850 E24.38046 F1800.000
G1 X68.150 Y68.150 E25.74213
G1 X131.850 Y68.150 E27.10380
G1 X131.850 Y131.805 E28.46450
G1 X131.590 Y131.700 F7800.000
G1 E26.46450 F2400.00000
G92 E0
G1 X132.000 Y132.000 F7800.000
G1 X132.000 Y132.000 F7800.000
G1 X129.150 Y129.150 F7800.000
G1 E2.00000 F2400.00000
G1 X70.850 Y129.150 E3.24624 F1800.000
G1 X70.850 Y70.850 E4.49247
G1 X129.150 Y70.850 E5.73871
G1 X129.150 Y129.105 E6.98398
G1 X129.150 Y129.450 F7800.000
G1 X129.850 Y129.850 F7800.000
G1 X70.150 Y129.850 E8.26014 F1800.000
G1 X70.150 Y70.150 E9.53631
G1 X129.850 Y70.150 E10.81247
G1 X129.850 Y129.805 E12.08767
G1 X129.590 Y129.700 F7800.000
G1 X129.466 Y129.466 F7800.000
G1 X129.303 Y129.500 E12.09808 F1200.000
G1 X70.697 Y129.500 E15.75178
G1 X70.534 Y129.466 E15.76219
G1 X70.500 Y129.303 E15.77260
G1 X70.500 Y70.697 E19.42630
G1 X70.534 Y70.534 E19.43671
G1 X70.697 Y70.500 E19.44712
G1 X129.303 Y70.500 E23.10083
G1 X129.466 Y70.534 E23.11124
G1 X129.500 Y70.697 E23.12165
G1 X129.500 Y129.303 E26.77535
G1 X129.475 Y129.422 E26.78295
G1 E24.78295 F2400.00000
G92 E0
G1 X132.000 Y132.000 F7800.000
G1 X132.000 Y132.000 F7800.000
G1 X131.466 Y131.466 F7800.000
G1 E2.00000 F2400.00000
G1 X131.303 Y131.500 E2.01041 F1200.000
G1 X68.697 Y131.500 E5.91349
G1 X68.534 Y131.466 E5.92390
G1 X68.500 Y131.303 E5.93431
G1 X68.500 Y68.697 E9.83739
G1 X68.534 Y68.534 E9.84780
G1 X68.697 Y68.500 E9.85821
G1 X131.303 Y68.500 E13.76129
G1 X131.466 Y68.534 E13.77170
G1 X131.500 Y68.697 E13.78211
G1 X131.500 Y131.303 E17.68519
G1 X131.475 Y131.422 E17.69279
G1 Z1.700 F7800.000
G1 X131.150 Y131.150 F7800.000
G1 X68.850 Y131.150 E19.02453 F1800.000
G1 X68.850 Y68.850 E20.35627
G1 X131.150 Y68.850 E21.68801
G1 X131.150 Y131.105 E23.01879
G1 X131.150 Y131.450 F7800.000
G1 X131.850 Y131.850 F7800.000
G1 X68.150 Y131.850 E24.38046 F1800.000
G1 X68.150 Y68.150 E25.74213
G1 X131.850 Y68.150 E27.10380
G1 X131.850 Y131.805 E28.46450
G1 X131.590 Y131.700 F7800.000
G1 E26.46450 F2400.00000
G92 E0
G1 X132.000 Y132.000 F7800.000
G1 X132.000 Y132.000 F7800.000
G1 X129.150 Y129.150 F7800.000
G1 E2.00000 F2400.00000
G1 X70.850 Y129.150 E3.24624 F1800.000
G1 X70.850 Y70.850 E4.49247
G1 X129.150 Y70.850 E5.73871
G1 X129.150 Y129.105 E6.98398
G1 X129.150 Y129.450 F7800.000
G1 X129.850 Y129.850 F7800.000
G1 X70.150 Y129.850 E8.26014 F1800.000
G1 X70.150 Y70.150 E9.53631
G1 X129.850 Y70.150 E10.81247
G1 X129.850 Y129.805 E12.08767
G1 X129.590 Y129.700 F7800.000
G1 X129.466 Y129.466 F7800.000
G1 X129.303 Y129.500 E12.09808 F1200.000
G1 X70.697 Y129.500 E15.75178
G1 X70.534 Y129.466 E15.76219
G1 X70.500 Y129.303 E15.77260
G1 X70.500 Y70.697 E19.42630
G1 X70.534 Y70.534 E19.43671
G1 X70.697 Y70.500 E19.44712
G1 X129.303 Y70.500 E23.10083
G1 X129.466 Y70.534 E23.11124
G1 X129.500 Y70.697 E23.12165
G1 X129.500 Y129.303 E26.77535
G1 X129.475 Y129.422 E26.78295
G1 E24.78295 F2400.00000
G92 E0
G1 X132.000 Y132.000 F7800.000
G1 X132.000 Y132.000 F7800.000
G1 X131.466 Y131.466 F7800.000
G1 E2.00000 F2400.00000
G1 X131.303 Y131.500 E2.01041 F1200.000
G1 X68.697 Y131.500 E5.91349
G1 X68.534 Y131.466 E5.92390
G1 X68.500 Y131.303 E5.93431
G1 X68.500 Y68.697 E9.83739
G1 X68.534 Y68.534 E9.84780
G1 X68.697 Y68.500 E9.85821
G1 X131.303 Y68.500 E13.76129
G1 X131.466 Y68.534 E13.77170
G1 X131.500 Y68.697 E13.78211
G1 X131.500 Y131.303 E17.68519
G1 X131.475 Y131.422 E17.69279
G1 Z1.900 F7800.000
G1 X131.150 Y131.150 F7800.000
G1 X68.850 Y131.150 E19.02453 F1800.000
G1 X68.850 Y68.850 E20.35627
G1 X131.150 Y68.850 E21.68801
G1 X131.150 Y131.105 E23.01879
G1 X131.150 Y131.450 F7800.000
G1 X131.850 Y131.850 F7800.000
G1 X68.150 Y131.850 E24.38046 F1800.000
G1 X68.150 Y68.150 E25.74213
G1 X131.850 Y68.150 E27.10380
G1 X131.850 Y131.805 E28.46450
G1 X131.590 Y131.700 F7800.000
G1 E26.46450 F2400.00000
G92 E0
G1 X132.000 Y132.000 F7800.000
G1 X132.000 Y132.000 F7800.000
G1 X129.150 Y129.150 F7800.000
G1 E2.00000 F2400.00000
G1 X70.850 Y129.150 E3.24624 F1800.000
G1 X70.850 Y70.850 E4.49247
G1 X129.150 Y70.850 E5.73871
G1 X129.150 Y129.105 E6.98398
G1 X129.150 Y129.450 F7800.000
G1 X129.850 Y129.850 F7800.000
